X:70
T:Hie O Says Rowly. RHu.61
S:R.Hughes MS,1823,Whitchurch,Shrops.
R:Air
A:Whitchurch, Shropshire
Z:Neil Brookes 2006
M:6/8
L:1/8
Q:3/8=100
K:G
gag d2c|BcA G2z|gag b2g|fazz2z::!
gag bag|aba fed|efe efg|dec BAG|!
“pia”c2eB2d|ABc def|g2d edc|B3 GAB|!
“p”c2eB2d|ABc def|gfg edc|B3G3|]

